X: 131
T:Hot Asphalt
M:6/8
R:jig
L:1/8
Z:added by Alf warnock alf0@rogers.com - www.alfwarnock.info/alfs
K:Bm
d2c|"Bm"B2c d2c|B2A F2A|"D"d2e f2d|"A"e3 f2a|"Bm"b2a f2e|d2B c2B|
"A"A2A A2F|A3 d2c|"Bm"B2c d2c|B2A F2A|"D"d2e f2d|"A"e3 f2a|
"Bm"b2a f2e|"A"d2B c2A|"Bm"B3 B3|B3 f2g|"D"a2a a2a|a2f d2f|
a2a a2f|a3 f2a|"Bm"b2a f2e|d2B c2B|"A"A2A A2F|A3 d2c|
"Bm"B2c d2c|B2A F2A|"D"d2e f2d|"A"e3 f2a|"Bm"b2a f2e|"A"d2B c2A|"Bm"B3 B3|B6|
P:2nd part
"D"a2a a2a|a2f d2f|a2a a2f|a3 f2a|"Bm"b2a f2e|d2B c2B|
"A"A2A A2F|A3 d2c|"Bm"B2c d2c|B2A F2A|"D"d2e f2d|
"A"e3 f2a|"Bm"b2a f2e|"A"d2B c2A|"Bm"B3 B3| B3
P:tag
fga|b2a f2e|"A"d2B c2A|"Bm"B3 B3| B6|

